docs/images/icons/whatsapp.svg

<svg width="19" height="20" viewBox="0 0 19 20" fill="none" xmlns="http://www.w3.org/2000/svg">
<path d="M1.58649 17.9166L2.65682 13.9836C1.95156 12.7747 1.58102 11.3996 1.58332 9.99998C1.58332 5.6276 5.12762 2.08331 9.49999 2.08331C13.8724 2.08331 17.4167 5.6276 17.4167 9.99998C17.4167 14.3724 13.8724 17.9166 9.49999 17.9166C8.10094 17.9189 6.72651 17.5487 5.51791 16.8439L1.58649 17.9166ZM6.64286 6.28548C6.54063 6.29183 6.44073 6.31875 6.34916 6.36465C6.26328 6.41328 6.18488 6.47407 6.11641 6.54515C6.02141 6.6346 5.96757 6.71219 5.90978 6.7874C5.61719 7.16818 5.45981 7.6356 5.46249 8.11581C5.46407 8.50373 5.56541 8.88135 5.72374 9.23444C6.04753 9.94852 6.58032 10.7046 7.28412 11.4052C7.45353 11.5738 7.61899 11.7432 7.79711 11.9008C8.67063 12.6698 9.71157 13.2245 10.8371 13.5205L11.2876 13.5894C11.434 13.5973 11.5805 13.5862 11.7277 13.5791C11.9583 13.5672 12.1834 13.5048 12.3872 13.3962C12.5186 13.3266 12.5804 13.2917 12.6904 13.2221C12.6904 13.2221 12.7244 13.1999 12.7894 13.1508C12.8962 13.0716 12.9619 13.0154 13.0506 12.9228C13.1163 12.8547 13.1733 12.7748 13.2169 12.6837C13.2786 12.5547 13.3404 12.3085 13.3657 12.1034C13.3847 11.9467 13.3792 11.8612 13.3768 11.8081C13.3736 11.7234 13.3032 11.6356 13.2264 11.5984L12.7656 11.3917C12.7656 11.3917 12.0769 11.0917 11.6565 10.9001C11.6122 10.8808 11.5647 10.8698 11.5164 10.8676C11.4622 10.8621 11.4075 10.8682 11.3559 10.8855C11.3042 10.9029 11.2569 10.931 11.2171 10.9682V10.9666C11.2132 10.9666 11.1601 11.0117 10.5877 11.7052C10.5549 11.7494 10.5096 11.7827 10.4578 11.8011C10.4059 11.8194 10.3497 11.8219 10.2964 11.8081C10.2448 11.7944 10.1943 11.7769 10.1452 11.7559C10.047 11.7147 10.013 11.6989 9.9457 11.6696L9.94174 11.668C9.48883 11.4703 9.0695 11.2032 8.69882 10.8764C8.59907 10.7893 8.50645 10.6943 8.41145 10.6024C8.09999 10.3042 7.82856 9.96674 7.60395 9.5986L7.55724 9.5234C7.52369 9.47286 7.49657 9.41834 7.47649 9.3611C7.44641 9.24473 7.52478 9.15131 7.52478 9.15131C7.52478 9.15131 7.71716 8.94073 7.80661 8.82673C7.8811 8.73198 7.9506 8.63342 8.01482 8.53144C8.10824 8.38102 8.13753 8.22665 8.08845 8.1071C7.86678 7.5656 7.6372 7.02648 7.40128 6.49131C7.35457 6.38523 7.21603 6.30923 7.09016 6.29419C7.04741 6.28944 7.00466 6.28469 6.96191 6.28152C6.85559 6.27624 6.74905 6.2773 6.64286 6.28469V6.28548Z" fill="#BDBDC0"/>
</svg>

<svg width="19" height="20" fill="none" xmlns="http://www.w3.org/2000/svg"><path d="m1.586 17.917 1.07-3.933a7.917 7.917 0 1 1 2.861 2.86l-3.93 1.073ZM6.643 6.285a.76.76 0 0 0-.294.08c-.086.048-.164.11-.233.18-.095.09-.148.167-.206.242a2.16 2.16 0 0 0-.448 1.329c.002.388.103.765.262 1.118.324.715.856 1.47 1.56 2.171.17.169.335.338.513.496a7.48 7.48 0 0 0 3.04 1.62l.45.068c.147.008.293-.003.44-.01.231-.012.456-.074.66-.183a3.82 3.82 0 0 0 .303-.174s.034-.022.1-.071c.106-.08.172-.136.26-.228a.91.91 0 0 0 .167-.24c.062-.128.123-.374.149-.58.019-.156.013-.242.01-.295-.002-.085-.073-.172-.15-.21l-.46-.206s-.69-.3-1.11-.492a.396.396 0 0 0-.14-.032.383.383 0 0 0-.299.1v-.001c-.004 0-.057.045-.63.738a.277.277 0 0 1-.29.103 1.107 1.107 0 0 1-.152-.052c-.098-.041-.132-.057-.2-.086l-.003-.002a4.758 4.758 0 0 1-1.243-.792c-.1-.087-.193-.182-.288-.274A4.982 4.982 0 0 1 7.604 9.6l-.047-.076a.73.73 0 0 1-.08-.162c-.03-.116.048-.21.048-.21s.192-.21.282-.324c.074-.095.144-.194.208-.296.093-.15.123-.304.073-.424a65.918 65.918 0 0 0-.687-1.616c-.046-.106-.185-.182-.31-.197a3.521 3.521 0 0 0-.13-.012 2.68 2.68 0 0 0-.318.003Z" fill="#BDBDC0"/></svg>
